!!!!SEGMENT: pl-wtm--r-1690--003_stefani-jozef--oj-zoneczka-no-2.krn
!!!cenid: 18xx:2309
!!!COM: Stefani, Józef
!!!COM-rism: pe30024097
!!!CDT: 1800/04/16-1876/03/19
!!!CNT: Polish
!!!OTL: Oj żoneczka – No. 2
!!!PDT:
!!!AGN: Secular
!!!SMS-siglum: PL-Wtm
!!!SMS-shelfmark: R 1690
!!!NIFC-rismID: 1001114714
!!!URL-scan: http://repozytorium.nifc.pl/skany/pl-wtm-nut--r1690
!!!ONB-nifc: UWAGA: skan 0008
!!!SMS-variant:
!!!SMS-altvar:
**kern	**dynam	**kern	**dynam	**kern	**dynam	**kern	**dynam	**kern	**text
*part5	*part5	*part4	*part4	*part3	*part3	*part2	*part2	*part1	*part1
*staff5	*	*staff4	*	*staff3	*	*staff2	*	*staff1	*staff1
*I"V :C: C: B:	*	*I"Viola	*	*I"V II	*	*I"V I	*	*I"Śpiew.	*
*I'V :C: C: B:	*	*I'Viola	*	*I'V II	*	*I'V I	*	*I'Śpiew	*
*clefF4	*	*clefC3	*	*clefG2	*	*clefG2	*	*clefG2	*
*k[f#]	*	*k[f#]	*	*k[f#]	*	*k[f#]	*	*k[f#]	*
*M2/4	*	*M2/4	*	*M2/4	*	*M2/4	*	*M2/4	*
=1	=1	=1	=1	=1	=1	=1	=1	=1	=1
*	*	*tremolo	*	*tremolo	*	*	*	*	*
!	!	!	!	!	!	!	!	!LO:TX:a:t=N°2.	!
!	!	!	!	!	!	!	!	!LO:TX:a:t=Allegretto.	!
4G\	p	(8B\L	p	(8d/L	p	4.gg\	p	2r	.
.	.	8g\	.	8g/	.	.	.	.	.
4G\	.	8B\	.	8d/	.	.	.	.	.
.	.	8g\J)	.	8g/J)	.	16aa\LL	.	.	.
.	.	.	.	.	.	16gg\JJ	.	.	.
=2	=2	=2	=2	=2	=2	=2	=2	=2	=2
*rep	*	*rep	*	*rep	*	*	*	*	*
4G\	.	(8B\L	.	(8d/L	.	8ff#\L	.	2r	.
.	.	8g\	.	8g/	.	8gg\	.	.	.
4G\	.	8B\	.	8d/	.	8aa\	.	.	.
.	.	8g\J)	.	8g/J)	.	8bb\J	.	.	.
*Xrep	*	*Xrep	*	*Xrep	*	*	*	*	*
=3	=3	=3	=3	=3	=3	=3	=3	=3	=3
4C/	.	(8c\L	.	(8e/L	.	4ccc\	.	2r	.
.	.	8a\	.	8a/	.	.	.	.	.
4C/	.	8c\	.	8e/	.	4ee\	.	.	.
.	.	8a\J)	.	8a/J)	.	.	.	.	.
=4	=4	=4	=4	=4	=4	=4	=4	=4	=4
*rep	*	*rep	*	*rep	*	*	*	*	*
4C/	.	(8c\L	.	(8e/L	.	4.aa\	.	2r	.
.	.	8a\	.	8a/	.	.	.	.	.
4C/	.	8c\	.	8e/	.	.	.	.	.
.	.	8a\J)	.	8a/J)	.	8gg\	.	.	.
*Xrep	*	*Xrep	*	*Xrep	*	*	*	*	*
=5	=5	=5	=5	=5	=5	=5	=5	=5	=5
4D/	.	(8A\L	.	(8c/L	.	8gg\L	.	2r	.
.	.	8f#\	.	8f#/	.	8ff#\	.	.	.
4D/	.	8A\	.	8c/	.	8ee\	.	.	.
.	.	8f#\J)	.	8f#/J)	.	8dd\J	.	.	.
=6	=6	=6	=6	=6	=6	=6	=6	=6	=6
*rep	*	*rep	*	*rep	*	*	*	*	*
4D/	.	(8A\L	.	(8c/L	.	8cc#X\L	.	2r	.
.	.	8f#\	.	8f#/	.	8dd\	.	.	.
4D/	.	8A\	.	8c/	.	8ee\	.	.	.
.	.	8f#\J)	.	8f#/J)	.	8ff#\J	.	.	.
*Xrep	*	*Xrep	*	*Xrep	*	*	*	*	*
*	*	*Xtremolo	*	*Xtremolo	*	*	*	*	*
=7	=7	=7	=7	=7	=7	=7	=7	=7	=7
4G\	.	4g\	.	4g/	.	4gg\	.	2r	.
4G\	f	4B\ 4g	f	4d/ 4b	f	4dd\ 4bb	f	.	.
=8	=8	=8	=8	=8	=8	=8	=8	=8	=8
4G\	.	4B\ 4g	.	4d/ 4b	.	4b\ 4gg	.	4r	.
4r	.	4r	.	4r	.	4r	.	8r	.
!	!	!	!	!	!	!	!	!LO:TX:a:t=Wincenty	!
.	.	.	.	.	.	.	.	8g/	Przy-
=9	=9	=9	=9	=9	=9	=9	=9	=9	=9
4G\	.	4r	.	4r	.	4r	.	4.g/	-rze-
4r	.	4B/	p	4d/	p	4g/	p	.	.
.	.	.	.	.	.	.	.	16a/LL	-kam
.	.	.	.	.	.	.	.	16g/JJ	.
=10	=10	=10	=10	=10	=10	=10	=10	=10	=10
4G\	.	4r	.	4r	.	4r	.	8f#/L	tu
.	.	.	.	.	.	.	.	8g/J	.
4r	.	4B/	.	4d/	.	4g/	.	8a/	jak
.	.	.	.	.	.	.	.	8b/	naj-
=11	=11	=11	=11	=11	=11	=11	=11	=11	=11
4C/	.	4r	.	4r	.	4r	.	2cc/	-świę-
4r	.	4c\	.	4e/	.	4a/	.	.	.
=12	=12	=12	=12	=12	=12	=12	=12	=12	=12
4C/	.	4r	.	4r	.	4r	.	4a/	-ciéj
4r	.	4A/	.	4e/	.	4g/	.	8r	.
.	.	.	.	.	.	.	.	8g/	Wier-
=13	=13	=13	=13	=13	=13	=13	=13	=13	=13
4D/	.	4r	.	4r	.	4r	.	8g/L	-ne-
.	.	.	.	.	.	.	.	8f#/	.
4r	.	4A/	.	4d/	.	4f#/	.	8e/J	.
.	.	.	.	.	.	.	.	8d/	-go
=14	=14	=14	=14	=14	=14	=14	=14	=14	=14
4D/	.	4r	.	4r	.	4r	.	8c#X/L	mię
.	.	.	.	.	.	.	.	8d/	.
4r	.	4A/	.	4d/	.	4f#/	.	8e/	.
.	.	.	.	.	.	.	.	8f#/J	.
=15	=15	=15	=15	=15	=15	=15	=15	=15	=15
4G\	.	4B/	.	4d/	.	4g/	.	4g/	so-
!	!	!	!	!	!	!	!	!LO:TX:t=33.	!
4F#\	.	4c/	.	4d/	.	4a/	.	4a/	-bie
!!LO:LB:g=original
=16	=16	=16	=16	=16	=16	=16	=16	=16	=16
4G\	.	4B/	.	4d/	.	4b\	.	8b/	masz
.	.	.	.	.	.	.	.	8r	.
4r	.	4r	.	4r	.	4r	.	8dd\	Speł-
.	.	.	.	.	.	.	.	8dd\	-nię
=17	=17	=17	=17	=17	=17	=17	=17	=17	=17
4G\	.	4r	.	4r	.	4r	.	4.dd\	wszy-
4r	.	4B/	.	4d/	.	4g/	.	.	.
.	.	.	.	.	.	.	.	8b/	-stkie
=18	=18	=18	=18	=18	=18	=18	=18	=18	=18
4Fn\	.	4r	.	4r	.	4r	.	(4g/	two-
4r	.	4B/	.	4d/	.	4g/	.	8a/)	.
.	.	.	.	.	.	.	.	8b/	-je
=19	=19	=19	=19	=19	=19	=19	=19	=19	=19
4E\	.	4r	.	4r	.	4r	.	2cc/	chę-
4r	.	4c/	.	4c/	.	4g/	.	.	.
=20	=20	=20	=20	=20	=20	=20	=20	=20	=20
4C/	.	4r	.	4r	.	4r	.	4c/	-ci
4r	.	4c/	.	4e/	.	4g/	.	8cc\	Jeź-
.	.	.	.	.	.	.	.	8cc\	-li
=21	=21	=21	=21	=21	=21	=21	=21	=21	=21
4D/	.	4r	.	4r	.	4r	.	4b/	po-
4r	.	4B/	.	4d/	.	4g/	.	4b/	-zwo-
=22	=22	=22	=22	=22	=22	=22	=22	=22	=22
4D/	.	4r	.	4r	.	4r	.	4.a/	-le-
4r	.	4A/	.	4d/	.	4f#/	.	.	.
.	.	.	.	.	.	.	.	8dd\	-nie
=23	=23	=23	=23	=23	=23	=23	=23	=23	=23
4G\	.	4r	.	4r	.	4r	.	4b/	dasz
!	!	!	!	!	!	!	!	!LO:TX:t=34	!
4r	.	4B/	.	4d/	.	4g/	.	4r	.
=24	=24	=24	=24	=24	=24	=24	=24	=24	=24
4C/	.	4r	.	4r	.	4r	.	4r	.
4r	.	4c/	.	4e/	.	4g/	.	8ee\	Jeź-
.	.	.	.	.	.	.	.	8ee\	-li
=25	=25	=25	=25	=25	=25	=25	=25	=25	=25
4D/	.	4r	.	4r	.	4r	.	4dd\	poz-
4r	.	4B/	.	4d/	.	4g/	.	4b\	-wo-
=26	=26	=26	=26	=26	=26	=26	=26	=26	=26
4D/	.	4r	.	4r	.	4r	.	4.a/	-le-
4r	.	4A/	.	4d/	.	4f#/	.	.	.
.	.	.	.	.	.	.	.	8dd\	-nie
=27	=27	=27	=27	=27	=27	=27	=27	=27	=27
*^	*	*	*	*	*	*	*	*	*
*tremolo	*tremolo	*	*tremolo	*	*tremolo	*	*	*	*	*
16G/LL	8G\L	f	16B\LL 16g	f	16d/LL 16b	f	4g/	.	4g/	dasz
16G/	.	.	16B\ 16g	.	16d/ 16b	.	.	.	.	.
16G/	8G\	.	16B\ 16g	.	16d/ 16b	.	.	.	.	.
16G/	.	.	16B\ 16g	.	16d/ 16b	.	.	.	.	.
16G/	8G\	.	16B\ 16g	.	16d/ 16b	.	16gg\LL	f	4r	.
16G/	.	.	16B\ 16g	.	16d/ 16b	.	16bb\	.	.	.
16G/	8G\J	.	16B\ 16g	.	16d/ 16b	.	16aa\	.	.	.
16G/JJ	.	.	16B\JJ 16g	.	16d/JJ 16b	.	16gg\JJ	.	.	.
=28	=28	=28	=28	=28	=28	=28	=28	=28	=28	=28
16D/LL	8D\L	.	16A/LL 16d	.	16d/LL 16cc	.	8ff#\L	.	2r	.
16D/	.	.	16A/ 16d	.	16d/ 16cc	.	.	.	.	.
16D/	8D\	.	16A/ 16d	.	16d/ 16cc	.	8dd\	.	.	.
16D/	.	.	16A/ 16d	.	16d/ 16cc	.	.	.	.	.
16D/	8D\	.	16A/ 16d	.	16d/ 16cc	.	8ee\	.	.	.
16D/	.	.	16A/ 16d	.	16d/ 16cc	.	.	.	.	.
16D/	8D\J	.	16A/ 16d	.	16d/ 16cc	.	8ff#\J	.	.	.
16D/JJ	.	.	16A/JJ 16d	.	16d/JJ 16cc	.	.	.	.	.
=29	=29	=29	=29	=29	=29	=29	=29	=29	=29	=29
16G/LL	8G\L	.	16B\LL 16g	.	16d/LL 16b	.	4gg\	.	2r	.
16G/	.	.	16B\ 16g	.	16d/ 16b	.	.	.	.	.
16G/	8G\	.	16B\ 16g	.	16d/ 16b	.	.	.	.	.
16G/	.	.	16B\ 16g	.	16d/ 16b	.	.	.	.	.
16G/	8G\	.	16B\ 16g	.	16d/ 16b	.	16gg\LL	.	.	.
16G/	.	.	16B\ 16g	.	16d/ 16b	.	16bb\	.	.	.
16G/	8G\J	.	16B\ 16g	.	16d/ 16b	.	16aa\	.	.	.
16G/JJ	.	.	16B\JJ 16g	.	16d/JJ 16b	.	16gg\JJ	.	.	.
=30	=30	=30	=30	=30	=30	=30	=30	=30	=30	=30
16D/LL	8D\L	.	16A/LL 16d	.	16d/LL 16cc	.	8ff#\L	.	2r	.
16D/	.	.	16A/ 16d	.	16d/ 16cc	.	.	.	.	.
16D/	8D\	.	16A/ 16d	.	16d/ 16cc	.	8dd\	.	.	.
16D/	.	.	16A/ 16d	.	16d/ 16cc	.	.	.	.	.
16D/	8D\	.	16A/ 16d	.	16d/ 16cc	.	8ee\	.	.	.
16D/	.	.	16A/ 16d	.	16d/ 16cc	.	.	.	.	.
16D/	8D\J	.	16A/ 16d	.	16d/ 16cc	.	8ff#\J	.	.	.
16D/JJ	.	.	16A/JJ 16d	.	16d/JJ 16cc	.	.	.	.	.
*	*Xtremolo	*	*Xtremolo	*	*Xtremolo	*	*	*	*	*
!!LO:PB:g=original
=31	=31	=31	=31	=31	=31	=31	=31	=31	=31	=31
*Xtremolo	*	*	*	*	*	*	*	*	*	*
!	!	!	!	!	!	!	!	!	!LO:TX:t=35	!
4G/	4G\	.	4B\ 4g	.	4d/ 4b	.	4gg\	.	2r	.
4G/	4G\	.	4B\ 4g	.	4d/ 4b	.	4b\ 4gg	.	.	.
=32	=32	=32	=32	=32	=32	=32	=32	=32	=32	=32
4G/	4G\	.	4B\ 4g	.	4d/ 4b	.	4b\ 4gg	.	4r	.
4r	4ryy	.	4r	.	4r	.	4r	.	8r	.
!	!	!	!	!	!	!	!	!	!LO:TX:a:t=Anusia	!
.	.	.	.	.	.	.	.	.	8b/	Przy-
*v	*v	*	*	*	*	*	*	*	*	*
=33	=33	=33	=33	=33	=33	=33	=33	=33	=33
4D\	p	4r	.	4r	.	4r	.	4a/	-jem-
4r	.	4A/	p	4d/	p	4f#/	p	8a/	-na
.	.	.	.	.	.	.	.	8a/	mię
=34	=34	=34	=34	=34	=34	=34	=34	=34	=34
4D\	.	4r	.	4r	.	4r	.	8a/L	przy-
.	.	.	.	.	.	.	.	8ff#/	.
4r	.	4A/	.	4d/	.	4f#/	.	8ee/J	.
.	.	.	.	.	.	.	.	8dd/	-szłość
=35	=35	=35	=35	=35	=35	=35	=35	=35	=35
4E\	.	4r	.	4r	.	4r	.	2dd\	cze-
4r	.	4A/	.	4d/	.	4g/	.	.	.
=36	=36	=36	=36	=36	=36	=36	=36	=36	=36
4E\	.	4r	.	4r	.	4r	.	8cc#X\	-ka,
.	.	.	.	.	.	.	.	8r	.
4r	.	4A/	.	4c#X/	.	4g/	.	4ee\	Bądź
=37	=37	=37	=37	=37	=37	=37	=37	=37	=37
4C#X/	.	4r	.	4r	.	4r	.	4ee\	do-
4r	.	4A/	.	4e/	.	4g/	.	8cc#X\	-brym
.	.	.	.	.	.	.	.	8cc#\	po-
=38	=38	=38	=38	=38	=38	=38	=38	=38	=38
4C#X/	.	4r	.	4r	.	4r	.	4.a/	-słu-
4r	.	4A/	.	4e/	.	4g/	.	.	.
.	.	.	.	.	.	.	.	8g/	-sznym
=39	=39	=39	=39	=39	=39	=39	=39	=39	=39
4D/	.	4r	.	4r	.	4r	.	4f#/	wciąż
!	!	!	!	!	!	!	!	!LO:TX:t=36	!
4r	.	4A/	.	4d/	.	4f#/	.	4r	.
=40	=40	=40	=40	=40	=40	=40	=40	=40	=40
4Cn/	.	4r	.	4r	.	4r	.	4r	.
4r	.	4A/	.	4d/	.	4f#/	.	4dd\	To
=41	=41	=41	=41	=41	=41	=41	=41	=41	=41
4BB/	.	4r	.	4r	.	4r	.	4.dd\	co
4r	.	4G/	.	4d/	.	4g/	.	.	.
.	.	.	.	.	.	.	.	8b\	ko-
=42	=42	=42	=42	=42	=42	=42	=42	=42	=42
4BB/	.	4r	.	4r	.	4r	.	4g/	-cha-
4r	.	4G/	.	4d/	.	4g/	.	8g/	-nek
.	.	.	.	.	.	.	.	8g/	przy-
=43	=43	=43	=43	=43	=43	=43	=43	=43	=43
4C/	.	4r	.	4r	.	4r	.	2ee\	-rze-
4r	.	4c\	.	4e/	.	4g/	.	.	.
=44	=44	=44	=44	=44	=44	=44	=44	=44	=44
4C/	.	4r	.	4r	.	4r	.	8cc\	-ka
.	.	.	.	.	.	.	.	8r	.
4r	.	4e\	.	4a/	.	4cc\	.	8ee\	Niech-
.	.	.	.	.	.	.	.	8ee\	-że
!!LO:LB:g=original
=45	=45	=45	=45	=45	=45	=45	=45	=45	=45
4D\	.	4r	.	4r	.	4r	.	4dd/	nie
4r	.	4d\	.	4g/	.	4b\	.	4b/	za-
=46	=46	=46	=46	=46	=46	=46	=46	=46	=46
4D\	.	4r	.	4r	.	4r	.	4.a/	-po-
4r	.	4d\	.	4f#/	.	4a/	.	.	.
.	.	.	.	.	.	.	.	8dd/	-mni
=47	=47	=47	=47	=47	=47	=47	=47	=47	=47
4G\	.	4r	.	4r	.	4r	.	4b/	mąż
!	!	!	!	!	!	!	!	!LO:TX:t=37	!
4r	.	4d\	.	4g/	.	4b\	.	4r	.
=48	=48	=48	=48	=48	=48	=48	=48	=48	=48
4C/	.	4r	.	4r	.	4r	.	4r	.
4r	.	4e\	.	4g/	.	4cc\	.	8gg\	Niech-
.	.	.	.	.	.	.	.	8ee\	-że
=49	=49	=49	=49	=49	=49	=49	=49	=49	=49
4D/	.	4r	.	4r	.	4r	.	4dd\	nie
4r	.	4d\	.	4g/	.	4b\	.	4b\	za-
=50	=50	=50	=50	=50	=50	=50	=50	=50	=50
4D/	.	4r	.	4r	.	4r	.	8dd\L	-po-
.	.	.	.	.	.	.	.	8cc\	.
4r	.	4d\	.	4f#/	.	4a/	.	8b\J	.
.	.	.	.	.	.	.	.	8a/	-mni
=51	=51	=51	=51	=51	=51	=51	=51	=51	=51
*tremolo	*	*tremolo	*	*tremolo	*	*	*	*	*
*^	*	*	*	*	*	*	*	*	*
16G/LL	8G\L	f	16B\LL 16g	f	16d/LL 16b	f	4g/	.	4g/	mąż
16G/	.	.	16B\ 16g	.	16d/ 16b	.	.	.	.	.
16G/	8G\	.	16B\ 16g	.	16d/ 16b	.	.	.	.	.
16G/	.	.	16B\ 16g	.	16d/ 16b	.	.	.	.	.
16G/	8G\	.	16B\ 16g	.	16d/ 16b	.	16gg\LL	f	4r	.
16G/	.	.	16B\ 16g	.	16d/ 16b	.	16bb\	.	.	.
16G/	8G\J	.	16B\ 16g	.	16d/ 16b	.	16aa\	.	.	.
16G/JJ	.	.	16B\JJ 16g	.	16d/JJ 16b	.	16gg\JJ	.	.	.
=52	=52	=52	=52	=52	=52	=52	=52	=52	=52	=52
16D/LL	8D\L	.	16A\LL 16d	.	16d/LL 16cc	.	8ff#\L	.	2r	.
16D/	.	.	16A\ 16d	.	16d/ 16cc	.	.	.	.	.
16D/	8D\	.	16A\ 16d	.	16d/ 16cc	.	8dd\	.	.	.
16D/	.	.	16A\ 16d	.	16d/ 16cc	.	.	.	.	.
16D/	8D\	.	16A\ 16d	.	16d/ 16cc	.	8ee\	.	.	.
16D/	.	.	16A\ 16d	.	16d/ 16cc	.	.	.	.	.
16D/	8D\J	.	16A\ 16d	.	16d/ 16cc	.	8ff#\J	.	.	.
16D/JJ	.	.	16A\JJ 16d	.	16d/JJ 16cc	.	.	.	.	.
=53	=53	=53	=53	=53	=53	=53	=53	=53	=53	=53
16G/LL	8G\L	.	16B\LL 16g	.	16d/LL 16b	.	4gg\	.	2r	.
16G/	.	.	16B\ 16g	.	16d/ 16b	.	.	.	.	.
16G/	8G\	.	16B\ 16g	.	16d/ 16b	.	.	.	.	.
16G/	.	.	16B\ 16g	.	16d/ 16b	.	.	.	.	.
16G/	8G\	.	16B\ 16g	.	16d/ 16b	.	16gg\LL	.	.	.
16G/	.	.	16B\ 16g	.	16d/ 16b	.	16bb\	.	.	.
16G/	8G\J	.	16B\ 16g	.	16d/ 16b	.	16aa\	.	.	.
16G/JJ	.	.	16B\JJ 16g	.	16d/JJ 16b	.	16gg\JJ	.	.	.
=54	=54	=54	=54	=54	=54	=54	=54	=54	=54	=54
16D/LL	8D\L	.	16A\LL 16d	.	16d/LL 16cc	.	8ff#\L	.	2r	.
16D/	.	.	16A\ 16d	.	16d/ 16cc	.	.	.	.	.
16D/	8D\	.	16A\ 16d	.	16d/ 16cc	.	8dd\	.	.	.
16D/	.	.	16A\ 16d	.	16d/ 16cc	.	.	.	.	.
16D/	8D\	.	16A\ 16d	.	16d/ 16cc	.	8ee\	.	.	.
16D/	.	.	16A\ 16d	.	16d/ 16cc	.	.	.	.	.
16D/	8D\J	.	16A\ 16d	.	16d/ 16cc	.	8ff#\J	.	.	.
16D/JJ	.	.	16A\JJ 16d	.	16d/JJ 16cc	.	.	.	.	.
*	*Xtremolo	*	*tremolo	*	*tremolo	*	*	*	*	*
=55	=55	=55	=55	=55	=55	=55	=55	=55	=55	=55
*Xtremolo	*	*	*	*	*	*	*	*	*	*
4G/	4G\	.	4B\ 4g	.	4d/ 4b	.	4gg\	.	2r	.
4G/	4G\	.	4B\ 4g	.	4d/ 4b	.	4b\ 4gg	.	.	.
=56	=56	=56	=56	=56	=56	=56	=56	=56	=56	=56
!	!	!	!	!	!	!	!	!	!LO:TX:t=38.	!
4G/	4G\	.	4B\ 4g	.	4d/ 4b	.	4b\ 4gg	.	2r	.
4r	4ryy	.	4r	.	4r	.	4r	.	.	.
*v	*v	*	*	*	*	*	*	*	*	*
==	==	==	==	==	==	==	==	==	==
*-	*-	*-	*-	*-	*-	*-	*-	*-	*-
!!!system-decoration: [(s1,s2,s3,s4,s5)]
!!!RDF**kern: > = above
!!!RDF**kern: < = below
!!!ENC:Anastazja Marusiak
!!!END:2021-06-02
